!!!!SEGMENT: 015-1b-Sm-003.krn
!!!COM: F. Chopin
!!!OTL: 3. Nocturne
!!!OPS: Op. 15
!!!PTL: Trois Nocturnes
!!!PPR: M. Schlesinger
!!!PPP: Paris
!!!NIFC-rismID: 300605218
!!!NIFC-shelfmark: PL-Wbfc 1677/n
!!!OMD: [half] = 60
!!!SIC: No augmentation dot in MM
!!!OMD: Lento.
**kern	**kern	**dynam
*part1	*part1	*part1
*staff2	*staff1	*
*clefF4	*clefG2	*
*k[b-e-]	*k[b-e-]	*
*g:	*g:	*
*M3/4	*M3/4	*
*MM90	*MM90	*
!	!LO:TX:b:t=larguido e rubato.	!
4r	4dd^>	p
=1	=1	=1
*ped	*	*
(4G 4B- 4d	(2g\	.
4GG')	.	.
*Xped	*	*
4r	4b-	.
=2	=2	=2
*ped	*	*
(4G 4c 4e-	8aL\	<
.	8b-J\	.
4GG')	4g\	.
*Xped	*	*
4r	4a\	.
=3	=3	=3
*ped	*	*
(4G 4B- 4d	8b-L	.
.	8ccJ	.
4GG')	4dd	.
*Xped	*	*
4r	4gg	[
=4	=4	=4
*ped	*	*
4AA'	[2.ff)	>
4F 4c 4e-	.	.
4r	.	]
=5	=5	=5
4AA'	2.ff_	>
4F 4c 4e-	.	.
4r	.	.
=6	=6	=6
(4F 4c 4e-	(2.ff]	.
4AA')	.	.
*Xped	*	*
.	.	.
4r	.	.
=7	=7	=7
*ped	*	*
4BB-'\	2dd)	.
4F 4B- 4d	.	.
*Xped	*	*
4r	(4dd^<	.
!!LO:LB:g=original
=8	=8	=8
*^	*	*
4rbyy	4G-X^< 4A^< 4e-^<	2cc)	.
[2F^>	4BB-	.	.
.	4rEE	(4dd^<	.
=9	=9	=9	=9
*ped	*	*	*
[2.F]	4B-/ 4d/	2f)	.
.	4BB-'</	.	.
*Xped	*	*	*
.	4rEE	(4dd^<	.
=10	=10	=10	=10
4rbyy]	4G-^<X^< 4A^< 4e-^<	2cc)	.
[2F^>	4BB-	.	.
.	4rEE	(4dd	.
=11	=11	=11	=11
*ped	*	*	*
2F]	4B-/ 4d/	4b-)	.
.	4BB-'</	4r	.
*Xped	*	*	*
4reyy	4r	(4dd^<	.
*v	*v	*	*
=12	=12	=12
*ped	*	*
4D'> 4F#X'> 4c'>	4a\)	.
4DD'<	4r	.
*Xped	*	*
4r	(4dd^<	.
=13	=13	=13
*ped	*	*
(4D 4B-	2g\)	.
4GG'<)	.	.
*Xped	*	*
4r	(4b-	.
=14	=14	=14
*ped	*	*
(4G 4c 4e-	8aL\	<
.	8b-J\	.
4GG')	4g\	.
*Xped	*	*
4r	4a\	.
=15	=15	=15
*ped	*	*
(4G 4B- 4d	8b-L	.
.	8ccJ	.
4GG')	4dd	.
*Xped	*	*
4r	4gg	[
=16	=16	=16
*ped	*	*
4DD	[2.ff	f
4A 4d 4f 4a	.	.
4r	.	.
!!LO:LB:g=original
=17	=17	=17
4D'>	2.ff_)	.
4A 4d 4f 4a	.	.
4r	.	.
=18	=18	=18
(4A 4d 4a	2.ff_	.
4D'>)	.	.
*Xped	*	*
4r	.	.
=19	=19	=19
*ped	*	*
(4A 4d 4g#X	2ff]	.
4D'>)	.	.
*Xped	*	*
4r	(4ff^<	.
=20	=20	=20
*ped	*	*
(4A 4c#X 4gn	2een)	.
4D'>)	.	.
*Xped	*	*
4r	(4ff^<	.
=21	=21	=21
*ped	*	*
(4A 4d 4f	2a\)	.
4D'>)	.	.
*Xped	*	*
4r	(4ff^<	.
=22	=22	=22
*ped	*	*
(4A 4c#X 4g	2een)	.
4AA'\)	.	.
*Xped	*	*
4r	(4ff^<	.
=23	=23	=23
!	!LO:TX:t=poco\ rittenu\ to a\ Tempo.:dur=8q:ext=ud:problem:text with extention lines	!
*ped	*	*
(4A 4d 4f	4dd)	.
4D'>)	4r	.
*Xped	*	*
4r	(4ee-X^<	.
=24	=24	=24
*ped	*	*
4F (4A 4e-	4cc)	.
4F#X)	4r	.
*Xped	*	*
4r	(4dd^<	.
=25	=25	=25
*ped	*	*
(4G 4B- 4d	2g\)	.
4GG)	.	.
*Xped	*	*
4r	(4b-^<	.
!!LO:LB:g=original
=26	=26	=26
*ped	*	*
(4G 4c 4e-	8aL\	<
.	8b-J\	.
4GG'<)	4g\	.
*Xped	*	*
4r	4a\	.
=27	=27	=27
*ped	*	*
(4G 4B- 4d	8b-L	.
.	8ccJ	.
4GG'<)	4dd	.
*Xped	*	*
4r	4gg	[
=28	=28	=28
*ped	*	*
4AA'<	[2.ff^<	.
4F 4c 4e-	.	.
4r	.	.
=29	=29	=29
4AA'<	2.ff_	.
4F 4c 4e-	.	.
4r	.	.
=30	=30	=30
4F 4c 4e-	(2.ff])	.
4AA'<	.	.
*Xped	*	*
4r	.	.
=31	=31	=31
*ped	*	*
4BB-\	2dd))	.
4F 4B- 4d	.	.
4r	(4dd^<	.
=32	=32	=32
*^	*	*
4rbyy	(>4G-X^< 4A^< 4e-^<	2cc)	.
[2F	4BB-)	.	.
*Xped	*	*	*
.	4rEE	(>4dd^<	.
=33	=33	=33	=33
*ped	*	*	*
2.F]	4B-/ 4d/	2f)	.
.	4BB-'</	.	.
.	[4rE	(4dd^<	.
=34	=34	=34	=34
4G-X\ 4A 4e-	4rAAAyy]	2cc)	.
[2F	4BB-	.	.
.	4rE	4dd^<	.
!!LO:LB:g=original
=35	=35	=35	=35
2F]	4B-/ 4d/	4b-	.
!	!	!LO:TX:a:t=P:note-head-side tuplet number:problem	!
!	!	!LO:TX:a:t=legieriss.	!
.	4BB-'</	12r	.
.	.	(12dd^<L	.
!	!	!LO:TX:b:t=P:6 zamiast 3; bez klamry:problem	!
.	.	12ddJ	.
4r	4rAAAyy	12ffL	.
.	.	12ee-	.
.	.	12ddJ	.
*v	*v	*	*
=36	=36	=36
*ped	*	*
4D 4F#X 4c	4a)\	.
*	*Xtuplet	*
4DD'<	12r	.
.	(12dd^<L	.
.	12ddJ	.
*	*tuplet	*
.	8qdd/	.
*	*Xtuplet	*
4r	12ffL	.
*Xped	*	*
.	12ee-	.
.	12ddJ	.
*	*tuplet	*
=37	=37	=37
*ped	*	*
(4GG 4D 4B-	2g)\	.
4GGG'<)	.	.
*Xped	*	*
4r	(4b-^<	.
=38	=38	=38
*ped	*	*
(4G 4c 4e-	8aL\	<
.	8b-J\	.
4GG'<)	4g\	.
*Xped	*	*
4r	4a\	.
=39	=39	=39
*ped	*	*
(4G 4B- 4d	8b-L	.
.	8ccJ	.
4GG'<)	4dd	.
*Xped	*	*
4r	4gg	[
=40	=40	=40
*ped	*	*
4DD	[2.ff	f
4A 4d 4f 4a	.	.
4r	.	.
=41	=41	=41
4D'>	2.ff_	.
4A 4d 4f 4a	.	>
4r	.	.
=42	=42	=42
(4A 4d 4a	2.ff_)	.
4D'>)	.	.
*Xped	*	*
4r	.	.
=43	=43	=43
*ped	*	*
(4A 4d 4g#X	2ff]	.
4D'>)	.	.
*Xped	*	*
4r	(4ff	.
!!LO:LB:g=original
=44	=44	=44
*ped	*	*
(4A 4c#X 4gn	2een)	.
4D'>)	.	.
*Xped	*	*
4r	(4ff^<	.
=45	=45	=45
(4A 4d 4f	2a\)	.
4D'>)	.	.
4r	(4ff^<	.
=46	=46	=46
*ped	*	*
(4A 4c#X 4g	4ee-)	.
4AA'>\)	4r	.
*Xped	*	*
4r	(4ff^<	.
=47	=47	=47
*ped	*	*
(4A 4d 4f	[2.dd^<)	.
4D'>)	.	.
*Xped	*	*
4r	.	.
=48	=48	=48
*ped	*	*
(4A 4d 4f	[2.dd)]	.
4D')	.	>
4r	.	.
=49	=49	=49
(4A 4d 4f	2.dd_	.
4D'>)	.	.
!	!LO:TX:b:t= ritenuto.	!
4r	.	.
=50	=50	=50
(4A 4f	2.dd]	.
2D)	.	.
*Xped	*	*
.	.	.
=51	=51	=51
!	!LO:TX:a:t=a Tempo.	!
!	!LO:TX:b:t= sotto voce.	!
*ped	*	*
4D#X 4F#X 4A 4c	(2cc^<	.
!	!	!LO:DY:b=2
4DD#X'<	.	fz
4r	4cc	.
=52	=52	=52
4D#X 4F#X 4A 4c	8bnL\	.
.	8aJ\	.
4DD#y	4g\	.
4r	4f#X\)	.
!!LO:PB:g=original
=53	=53	=53
4D#X 4F#X 4A 4c	2cc	.
4DD	.	.
*Xped	*	*
4r	(4cc	<
=54	=54	=54
*ped	*	*
(4D#X 4Gn 4Bn	[2.bn)	[
!	!	!LO:DY:b=2
4DD#X'<)	.	fz
*Xped	*	*
4r	.	.
=55	=55	=55
*ped	*	*
(4Dn 4G 4Bn	2bnX)]	.
4DDn'<)	.	.
4r	(4b	.
=56	=56	=56
(4D 4G 4B-	8aL\	>
.	8gJ\	.
4DD'<)	4f#X\	.
*Xped	*	*
4r	4en)\	]
=57	=57	=57
*ped	*	*
(4D 4F#X 4c	(8dL\	<
.	8ee-J\	.
4DD'<)	4dd\	.
*Xped	*	*
4r	4a\)	[
=58	=58	=58
*ped	*	*
(4D 4F#X 4Bn	[2.bn	<
4DD')	.	[
*Xped	*	*
4r	.	.
=59	=59	=59
*ped	*	*
4D 4E#X 4G#X 4Bn	2bnX]	.
4DD'<	.	.
4r	(4bny	>
!!LO:LB:g=original
=60	=60	=60
4D 4E#X 4G#X 4Bn	8a#XL\	.
.	8g#XJ\	]
4DD'<	4f\	.
4r	4e#X\	.
=61	=61	=61
.	8qe#X/	.
4D 4E#X 4G#X 4Bn	2bn^<)	.
4DD	.	.
4r	(4b	.
*Xped	*	*
.	.	.
=62	=62	=62
*ped	*	*
(4D 4E#X 4A#X	[2.a#X\)	<
4DD'<)	.	.
4r	.	.
=63	=63	=63
!	!LO:TX:b:t= sostenuto.	!
(4C#X 4F#X 4A#X	(>2a#X\]	[
4CC#X'<)	.	.
4r	4a#\	.
=64	=64	=64
(4C#X 4F#X 4A	8g#XL\	.
.	8f#XJ\	.
4CC#X'<)	4e#X\	.
*Xped	*	*
4r	4d#X\)	.
=65	=65	=65
*ped	*	*
!LO:TX:t=ac-ce-le\ rando_:dur=15q:ext=ud:problem:text with extention lines	!	!
(4C#X 4E#X 4Bn	(8c#XL\	<
.	8dd#XJ\	.
4CC#X'<)	4cc#y\	[
*Xped	*	*
4r	4g#X\	<
=66	=66	=66
*ped	*	*
(4C#X 4F#X 4A#y	[>2.a#X\)	[
4CC#X')	.	.
*Xped	*	*
4r	.	.
!!LO:LB:g=original
=67	=67	=67
*ped	*	*
(4C#X 4F#X 4A#X	(2a#X]	.
4CC#X')	.	.
*Xped	*	*
4r	8bnL	>
.	8a#J	.
=68	=68	=68
*ped	*	*
(4C#X 4F#X 4A#X	8g#XL	.
.	8f#XJ	.
4CC#X')	4e#X	]
*Xped	*	*
4r	4d#X)	.
=69	=69	=69
*	*^	*
*ped	*	*	*
4C#X 4F##X 4A#X	(8enL	4en^<	.
.	8eenyJ	.	.
!	!	!LO:TX:t=cres _:problem:dynamics with extention lines 	!
!	!	!	!LO:HP:t=cres
4CC#X'<	2dd#X)	4rAyy	<
*Xped	*	*	*
4r	.	4d#X'>	.
=70	=70	=70	=70
*ped	*	*	*
4C#X 4G#X 4Bn	(8f#XL	4f#^<	.
.	8ff#yJ	.	.
4CC#X'<	2ee#X)	4rcyy	.
*Xped	*	*	*
4r	.	4e##X'>	.
=71	=71	=71	=71
*ped	*	*	*
4A#X 4c#X 4en	(8g#XL	4g#^<	.
.	8ggJ	.	.
4CC#X'<	2ff##X)	4rAyy	.
*Xped	*	*	*
4r	.	4f##X'>	.
=72	=72	=72	=72
*ped	*	*	*
4Bn 4d#X 4g#X	(8eenL	4een^<	.
.	8eee-J	.	.
4CC#X'< 4C#X'<	2ddd#X)	4rAyy	.
4r	.	4dd#X'>	.
=73	=73	=73	=73
*ped	*	*	*
4G#X 4Bn 4dn	(8f#XL	4f#^<	.
.	8ff#yJ	.	.
4CC#X'< 4C#X'<	2ee#X)	4rcyy	.
*Xped	*	*	*
4r	.	4e#X'>	.
!!LO:LB:g=original
=74	=74	=74	=74
*ped	*	*	*
4A#X 4c#X 4f#X	(8ddnL	4ddn^<	.
.	8dddJ	.	.
4CC#X'< 4C#X'<	2ccc#X)	4rcyy	.
*Xped	*	*	*
4r	.	4cc#X'>	.
=75	=75	=75	=75
*ped	*	*	*
4An 4d#X 4f#X	8cc#XL	4cc#^<	.
.	8cccJ	.	.
*coll8ba	*	*	*
!LO:TX:b:t=P:8 pod nutą:problem	!	!	!
4CC 4CCC	2bb#X	4rcyy	.
*Xcoll8ba	*	*	*
4r	.	4b#X	[
=76	=76	=76	=76
4A 4c 4d#X 4f#X 4a	8ee#XL	4ee#^<	.
.	8eee-J	.	.
*coll8ba	*	*	*
!LO:TX:b:t=P:8 pod nutą:problem	!	!	!
4CC 4CCC	2ddd#X	4rcyy	.
*Xped	*	*	*
*Xcoll8ba	*	*	*
4r	.	4dd#X'>	.
*	*v	*v	*
*clefG2	*	*
=77	=77	=77
*	*8va	*
(4a 4dd#X	(4ff#X 4ccc (4fff#X	>
4g#X) 4ddn	4ffn\ 4bbn\)	]
(4f#X\ 4cc\	(>4ee-X\ 4aa\ 4eee-X\	>
=78	=78	=78
4fn\ 4bn\)	4dd\ 4gg#X\)	]
(4e-X\ 4a\	(>4cc\ 4ff#X\ 4ccc\	>
4d\ 4g#X\)	4bn\ 4ffn\))	]
*	*X8va	*
=79	=79	=79
!	!LO:TX:b:t= rittenuto.	!
!	!	!LO:DY:b=2
!	!LO:TX:a:t= loco.	!
(2B#X 2f#y	(2a 2dd#X 2aa	fz
4c#X) 4e#X	4g#X 4ee#X 4gg#X)	>
*clefF4	*	*
=80	=80	=80
(8C#XL	2.rdd	.
8F#XJ)	.	.
*ped	*	*
4E#X'>	.	.
4CC#X'<	.	.
*Xped	*	*
.	.	.
!!LO:LB:g=original
=81	=81	=81
(2A 2d	(2f#X 2b#X 2ff#X	>
4G#X 4c#X)	4e#X\ 4cc#X\ 4ee#X\)	]
=82	=82	=82
!LO:TX:a:t=rall _:dur=6q:ext=ud:problem:text with extention lines	!	!
(8C#XL	2.rdd	.
8F#XJ)	.	.
4E#X'>	.	.
*ped	*	*
4CC#X'<	.	.
*Xped	*	*
=83	=83	=83
2F#X 2B#X	(2d^> 2a^> 2dd^>	.
4E#X 4c#X	4g#X 4cc#X)	.
=84	=84	=84
(8C#XL	2.rdd	.
8F#XJ)	.	.
*ped	*	*
4E#X'>	.	.
*Xped	*	*
4GG#X'<	.	.
=85	=85	=85
2.CC#X	2.rdd	pp
=86	=86	=86
(2.CC#X	2.rdd	.
=87	=87	=87
2.CC#X	2.rdd	.
=88	=88	=88
!	!LO:TX:t=a Tempo.	!
2DD-X	2.r	.
4CCn)	.	.
=89	=89	=89
!	!LO:TX:a:t= religioso.	!
!	!LO:TX:b:t= sotto voce.	!
(2.CC	(2en 2a 2ccn	p>
.	4c 4eny 4a	]
=90	=90	=90
2DD)	2A 2d 2f	<
4GG	4d 4g 4b-)	[[
!!LO:LB:g=original
=91	=91	=91
*	*^	*
!LO:TX:b:t= sempre legato.	!	!	!
2.C\	(>4a	2.c 2.en	.
.	4g	.	.
.	4a	.	.
*	*v	*v	*
=92	=92	=92
4D	2A 2d 2f	.
4D	.	.
4C\	4c 4en 4g)	.
=93	=93	=93
4F	(>2c 2f 2a	<
4F	.	.
4En	4c 4g 4cc	.
=94	=94	=94
4A	2en 2a 2cc	.
4A	.	.
4D	4f 4a 4dd	.
=95	=95	=95
4G	2g 2b- 2dd	.
4G	.	.
4C\	4g 4cc 4een	[
=96	=96	=96
4F'>	2.a 2.cc 2.ff)	.
(4FF	.	.
4EEn	.	.
=97	=97	=97
4DD	(4a 4dd 4ff	>
4EE-	4g#X 4bn 4een	.
4AA)	4e-\ 4a\ 4cc\	.
=98	=98	=98
2DD	2f\ 2a\ 2dd\	.
4AA	4en\ 4a\ 4cc\)	]
=99	=99	=99
4DD	(>\4f 4a\ 4dd\	>
4AA	4en\ 4a\ 4cc\	.
4D/	4d\ 4f\ 4a\	]
!!LO:PB:g=original
=100	=100	=100
2GG	2d 2g 2b-	>
4D/	4d 4f 4a)	]
=101	=101	=101
4GG	(>4d 4g 4b-	>
4AA	4c#X 4en 4a	.
4D/	4A 4d 4f	]
=102	=102	=102
2C	2c 2en 2g	<
4F/	4c 4f 4a	[
=103	=103	=103
4GG	4d 4g 4b-	<
4AA	4c#X 4en 4a	.
4GG	4d 4g 4b-	.
=104	=104	=104
*	*^	*
4AA	4c#X 4en 4a	4rFyy	.
4BB-	(2g^)	4d	.
4C	.	[4eny	[
*	*v	*v	*
=105	=105	=105
2.CC	2enX] 2a 2cc	>
.	4c 4eny 4a	]
=106	=106	=106
2DD	2A 2d 2f	<
4GG	4d 4g 4b-	[
=107	=107	=107
*	*^	*
2.C	4a^>	2.c 2.en	.
.	4g	.	.
.	4a	.	.
*	*v	*v	*
=108	=108	=108
4D/	2A 2d 2f	.
4D/	.	.
4C	4c 4en 4g)	.
!!LO:LB:g=original
=109	=109	=109
4F	(>2c 2f 2a	<
4F	.	.
4En	4c 4g 4cc	.
=110	=110	=110
4A	2en 2a 2cc	.
4A	.	.
4D	4f 4a 4dd	.
=111	=111	=111
4G	2g 2b- 2dd	.
4G	.	.
4C\	4g 4cc 4een	.
=112	=112	=112
4F	2.a 2.cc 2.ff)	[
4FF	.	.
4EEn	.	.
=113	=113	=113
4DD	(4a 4dd 4ff	>
4EE-	4g#X 4bn 4ee#X	.
4AA	4e-\ 4a\ 4cc\	.
=114	=114	=114
2DD	2f\ 2a\ 2dd\	.
4AA	4en\ 4a\ 4cc\)	]
=115	=115	=115
4DD	(4f 4a 4dd	>
4AA	4en 4a 4cc	.
4D/	4d 4f 4a	]
=116	=116	=116
2GG	2d^< 2g^< 2b-^<	.
4D/	4d 4f 4a)	.
=117	=117	=117
4GG	(4d^< 4g^< 4b-^<	.
4AA	4c#X 4en 4a	.
4D/	4A 4d 4f	.
!!LO:LB:g=original
=118	=118	=118
2C\	2c^< 2en^< 2g^<	.
4F	4c 4f 4a	<
=119	=119	=119
4GG	4d 4g 4b-	.
4AA	4c#X 4en 4a	.
4GG	4d 4g 4b-)	[
=120	=120	=120
2C	2c 2en 2g	>
4FF	4c 4f 4a	]
=121	=121	=121
*^	*^	*^
!	!	!	!	!LO:DY:rj	!LO:DY:a:rj
!	!LO:TX:a:t=P: fz przed akcentem:problem	!LO:TX:a:t=P: fz przed akcentem:problem	!	!	!
[2.c^>	2rBByy	[<2.cc^	2rcyy	fz	.
.	(>4F	.	(>4f 4a 4dd	<	.
*	*	*	*	*v	*v
=122	=122	=122	=122	=122
2c]	4C)	2cc]	4en'>) 4g'> 4een'>	.
.	4C'>	.	4eny'> 4g'> 4eeny'>	[
4reyy	4r	4rcccyy	4r	.
=123	=123	=123	=123	=123
!	!	!	!LO:TX:a:t=P: fz przed akcentem:problem	!
!	!	!	!	!LO:DY:rj
!	!	!	!	!LO:DY:a
[2.A	2rGGyy	[<2.a^>	2rFyy	fz
.	4D	.	(>4d 4f 4bn	<
=124	=124	=124	=124	=124
2A]	4AA'>	2a]	4c'>) 4en'> 4cc'>	.
.	4AA'>	.	4c'> 4eny'> 4cc'>	[
4reyy	4r	4rcccyy	4r	.
=125	=125	=125	=125	=125
*	*	*	*	*^
(8.cL	2rGGyy	8.ccL	2rcyy	.	.
16dJk)	.	16ddJk	.	.	.
!	!	!	!	!LO:DY:rj	!LO:DY:rj
!	!LO:TX:a:t=P: fz przed akcentem:problem	!LO:TX:a:t=P: fz przed akcentem:problem	!	!	!
!	!	!	!	!LO:DY:a	!
[2c^>)	.	[<2cc^>	.	fz	.
.	(>4F	.	(>4f 4a 4dd	<	.
*	*	*	*	*v	*v
=126	=126	=126	=126	=126
2c]	4C'>)	2cc]	4en'> 4g'> 4een'>)	.
.	4C'>	.	4eny 4g 4eeny	[
4B-	[4rBB	4b-^<\	[4rAyy	.
!!LO:LB:g=original
=127	=127	=127	=127	=127
8.AL/	2rGGyy]	8.aL\	2reyy]	.
16B-Jk/	.	16b-Jk\	.	.
!	!	!LO:TX:a:t=P: fz przed akcentem. Takty: 127, 129, 131, 133, 137, 139, 141, 143, 147, 149:problem	!	!LO:DY:a
!	!	!	!	!LO:DY:rj
[2A	.	[<2an^>	.	fz
.	(>4D	.	(>4d 4f 4bn	<
=128	=128	=128	=128	=128
2A]	4AA'>)	2a]	4c'>) 4en'> 4cc'>	.
.	4AA'>	.	4c'> 4eny'> 4cc'>	[
!	!	!LO:TX:t=P:akcent pomiędzy pięcioliniami:problem	!	!
4G	[4rGG	(4g^<\	[4rAyy	.
=129	=129	=129	=129	=129
!	!	!	!	!LO:DY:a:rj
[2.F	2rGGyy]	[<2.f^>)	2rcyy]	fz
.	(4BB-	.	(>4B- 4d 4g	.
=130	=130	=130	=130	=130
(2F]	2AA)	2f]	2A) 2c#X 2a	.
4Eny)	[4rEE	4en^>	[4rFyy	.
=131	=131	=131	=131	=131
8.FL/	2rEEyy]	8.fL	2rAyy]	.
16GJk/	.	16gJk	.	.
!	!	!	!	!LO:DY:a:rj
2F	.	2f^>	.	fz
.	4BB-	.	(>4B- 4d 4g	<
=132	=132	=132	=132	=132
2F	2AA	2f	2A) 2c#X 2a	[
[4En	4rEE	4en	4rAyy	.
*v	*v	*	*	*
*	*v	*v	*
=133	=133	=133
*^	*	*
*	*^	*	*^
!	!	!	!	!LO:DY:a:rj	!LO:DY:rj
2rcyy]	[2.D^>/	2rAAAyy	[2.d^>	fz	.
4F#X 4A	.	4DD\	.	.	.
*	*	*	*	*v	*v
=134	=134	=134	=134	=134
!	!LO:N:vis=2	!	!	!
2G 2B-	2.D_	2GG\	2.d_	pp
4F#X 4A	.	4DD\	.	.
*	*v	*v	*	*
=135	=135	=135	=135
2ryy	2GG\ 2D\]	2G< 2B-< 2d]	<
4rcyy	4CC\ 4C\	4G< 4c 4en	[
*v	*v	*	*
!!LO:LB:g=original
=136	=136	=136
2.FF\ 2.C\	2.A< 2.c 2.f	.
=137	=137	=137
*^	*^	*
!	!	!	!	!LO:DY:rj
[2.c^>	2rGGyy	[<2.cc^>	2rcyy	fz
.	(>4F	.	(>4f 4a 4dd	<
=138	=138	=138	=138	=138
2c]	4C)	2cc])	4en'> 4g'> 4een'>)	[
.	4C	.	4eny 4g 4eeny	.
4rcyy	4r	4raayy	4r	.
=139	=139	=139	=139	=139
*	*	*	*	*^
!	!	!	!	!LO:DY:rj	!LO:DY:a:rj
[2.A^>	2rGGyy	[<2.a^	2rcyy	fz	.
.	(>4D	.	(>4d 4f 4bn	<	.
*	*	*	*	*v	*v
=140	=140	=140	=140	=140
2A]	4AA'>)	2a])	4c'> 4en'> 4cc'>)	.
.	4AA'>	.	4c'> 4eny'> 4cc'>	[
4reyy	4r	4rgggyy	4r	.
=141	=141	=141	=141	=141
*	*	*	*	*^
8.cL/	2rCCyy	8.ccL	2rcyy	.	.
16dJk/	.	16ddJk	.	.	.
!	!	!	!	!LO:DY:rj	!LO:DY:a:rj
[2c^>	.	[<2cc^	.	fz	.
.	(>4F	.	(>4f 4a 4dd	<	.
*	*	*	*	*v	*v
=142	=142	=142	=142	=142
2c]	4C'>)	2cc]	4en'> 4g'> 4een'>)	[
.	4C'>	.	4eny 4g 4eeny	.
4B-	[4rBB	4b-\	[4rcyy	[
=143	=143	=143	=143	=143
*	*	*	*	*^
8.AL/	2rGGyy]	8.aL\	2rcyy]	.	.
16B-Jk/	.	16b-Jk\	.	.	.
!	!	!	!	!LO:DY:rj	!LO:DY:a
[2A^>	.	[<2a	.	fz	.
.	(>4D	.	(>4d 4f 4bn	<	.
*	*	*	*	*v	*v
=144	=144	=144	=144	=144
2A]	4AA'>)	2a]	4c'>) 4en'> 4cc'>	.
.	4AA'>	.	4c'> 4eny'> 4cc	[
4G	[4rGGyy	4g^<	[4rcyy	.
!!LO:LB:g=original
=145	=145	=145	=145	=145
!	!	!	!	!LO:DY:a
[2.F	2rEEyy]	[<2.f	2rcyy]	fz
.	4BB-	.	(>4B- 4d 4g	.
=146	=146	=146	=146	=146
2F]	2AA	2f])	2A 2c#X 2a	.
4En	[4rEEyy	4en	[4rFyy	.
=147	=147	=147	=147	=147
8.FL/	2rEEyy]	8.fL	2rAyy]	.
16GJk/	.	16gJk	.	.
!	!	!	!	!LO:DY:a:rj
[2F	.	[<2f^>	.	fz
.	4BB-	.	(>4B- 4d 4g	.
=148	=148	=148	=148	=148
2F]	2AA	2f]	2A) 2c#X 2a	.
[4En/	4rEEyy	4en	4rAyy	.
*v	*v	*	*	*
*	*v	*v	*
=149	=149	=149
*^	*	*
*	*^	*	*
!	!	!	!	!LO:DY:a:rj
2rcyy]	2.D/	2rAAAyy	[2.d^>	fz
!	!	!	!LO:TX:a:t=rittenuto _:dur=9q:ext=ud:problem:text with extention lines	!
4F#X 4A	.	(4DD\	.	.
*	*v	*v	*	*
=150	=150	=150	=150
(>2GG\ 2D\	2ryy	(>2G< 2B-< 2d]	.
4CC\ 4C\)	4ryy	4G< 4c< 4e-	.
*v	*v	*	*
=151	=151	=151
[2DD\ 2D\	2G< 2A< 2d	pp
4DD\] 4D#X\	4F< 4A< 4d	<
=152	=152	=152
!	!LO:TX:b:t=P:diminuendo like accent:problem	!
2.GGG\ 2.GG\)	2.D<;) 2.G< 2.Bn< 2.d	[>
!	!LO:TX:a:t= Fine.	!
.	.	]
==	==	==
*-	*-	*-
!!title: @{OTL}; @{OPS} @{ONM} publisher: @{PPR}
!!!RDF**kern: > = above
!!!RDF**kern: < = below
!!!RDF**dynam: < = "cres."
!!!RDF**dynam: > = "dim.", 'fontstyle="normal"
!!!ENC: Emilia Ziętek
!!!END: 2018-06-30
!!!EED:Jędrzej Mróz
!!!EST: 2018-07-11
!!!EED: Mateusz Mrugas
!!!EST: 2019-08-08
!!!rism-genre: Nocturne
!!!rism-key: G minor
!!!rism-opus: op.  15, no. 3
!!!rism-title: Nocturne in G minor op.  15, no. 3
!!!rism-permalink: https://opac.rism.info/search?id=300605218&View=rism
!!!rism-773a-OPR: 300605215
!!!rism-parent-permalink: https://opac.rism.info/search?id=300605215&View=rism
